modules/entypo/icons/chat.svg

<svg height="1000px" width="1000px" xmlns="http://www.w3.org/2000/svg">
  <g>
    <path d="M290 610c0 0 350 0 350 0c1.333 0 3.333 -0.667 6 -2c0 0 4 0 4 0c0 0 0 92 0 92c0 26.667 -9.667 50 -29 70c-19.333 20 -43 30 -71 30c0 0 -250 0 -250 0c0 0 -150 150 -150 150c0 0 0 -150 0 -150c0 0 -50 0 -50 0c-26.667 0 -50 -10 -70 -30c-20 -20 -30 -43.333 -30 -70c0 0 0 -300 0 -300c0 -28 10 -51.667 30 -71c20 -19.333 43.333 -29 70 -29c0 0 190 0 190 0c0 0 0 310 0 310c0 0 0 0 0 0m610 -560c28 0 51.667 9.667 71 29c19.333 19.333 29 43 29 71c0 0 0 300 0 300c0 26.667 -9.667 50 -29 70c-19.333 20 -43 30 -71 30c0 0 -50 0 -50 0c0 0 0 150 0 150c0 0 -150 -150 -150 -150c0 0 -350 0 -350 0c0 0 0 -400 0 -400c0 -28 10 -51.667 30 -71c20 -19.333 43.333 -29 70 -29c0 0 450 0 450 0c0 0 0 0 0 0" />
  </g>
</svg>

<svg height="1000" width="1000" viewBox="0 0 1000 1000" xmlns="http://www.w3.org/2000/svg"><path d="M290 610h350c1.333 0 3.333-.667 6-2h4v92c0 26.667-9.667 50-29 70s-43 30-71 30H300L150 950V800h-50c-26.667 0-50-10-70-30S0 726.667 0 700V400c0-28 10-51.667 30-71s43.333-29 70-29h190v310M900 50c28 0 51.667 9.667 71 29s29 43 29 71v300c0 26.667-9.667 50-29 70s-43 30-71 30h-50v150L700 550H350V150c0-28 10-51.667 30-71s43.333-29 70-29h450"/></svg>
